icons/1_Primary/NiceHash.svg

<svg width="1024" height="1024" viewBox="0 0 1024 1024" fill="none" xmlns="http://www.w3.org/2000/svg">
<g clip-path="url(#clip0_2_2934)">
<path d="M512 1024C794.77 1024 1024 794.77 1024 512C1024 229.23 794.77 0 512 0C229.23 0 0 229.23 0 512C0 794.77 229.23 1024 512 1024Z" fill="#F9DE81"/>
<path d="M512 745.77C383.34 745.77 279.74 641.5 279.74 512C279.74 382.5 383.34 278.23 512 278.23C640.66 278.23 744.26 382.5 744.26 512C744.26 641.5 640.66 745.77 512 745.77ZM512 234.5C359.95 234.5 236.3 359 236.3 512C236.3 665 359.95 789.5 512 789.5C664.05 789.5 787.7 665 787.7 512C787.7 359 664.05 234.5 512 234.5ZM640.66 596.93C630.66 590.2 617.27 593.57 610.58 603.66C610.58 604.5 579.67 652.43 512 652.43C445.16 652.43 415.09 606.18 413.42 603.66C412.005 601.23 410.107 599.116 407.843 597.448C405.579 595.78 402.997 594.595 400.257 593.964C397.517 593.333 394.676 593.271 391.911 593.781C389.146 594.291 386.515 595.363 384.18 596.93C374.18 602.82 370.81 616.27 376.66 626.36C378.33 628.88 420.94 695.36 512 695.36C603.06 695.36 645.67 629.77 647.34 626.36C653.19 616.27 650.69 602.82 640.66 596.93ZM625.66 514.52H584.68V474.16H625.62C638.99 474.16 647.34 481.73 647.34 494.34C647.34 506.11 639 514.52 625.62 514.52H625.66ZM644.88 428.75C644.88 440.52 637.36 447.25 623.99 447.25H584.68V410.25H624C637.32 410.25 644.84 417 644.84 428.75H644.88ZM657.41 459.86C666.6 453.97 674.12 443.04 674.12 427.86C674.12 404.31 659.92 388.34 637.36 384.13V371.57C637.36 368.69 636.216 365.927 634.179 363.891C632.142 361.854 629.38 360.71 626.5 360.71C623.62 360.71 620.857 361.854 618.821 363.891C616.784 365.927 615.64 368.69 615.64 371.57V383.34H598.89V371.57C598.89 368.69 597.746 365.927 595.709 363.891C593.672 361.854 590.91 360.71 588.03 360.71C585.15 360.71 582.387 361.854 580.351 363.891C578.314 365.927 577.17 368.69 577.17 371.57V383.34H567.17C563.848 383.425 560.687 384.789 558.347 387.147C556.007 389.506 554.668 392.678 554.61 396V528.82C554.68 532.128 556.021 535.283 558.353 537.63C560.686 539.978 563.832 541.338 567.14 541.43H577.14V555.73C577.14 558.61 578.284 561.373 580.321 563.409C582.357 565.446 585.12 566.59 588 566.59C590.88 566.59 593.642 565.446 595.679 563.409C597.716 561.373 598.86 558.61 598.86 555.73V541.43H615.6V555.73C615.6 558.61 616.744 561.373 618.781 563.409C620.817 565.446 623.58 566.59 626.46 566.59C629.34 566.59 632.102 565.446 634.139 563.409C636.176 561.373 637.32 558.61 637.32 555.73V540.59C661.55 537.23 676.59 520.41 676.59 495.18C675.75 480 669.07 466.59 657.37 459.86H657.41ZM376.66 494.34C376.66 481.73 385.01 474.16 398.38 474.16H439.32V514.52H398.38C385 514.52 376.66 506.11 376.66 494.34ZM400 410.25H439.27V447.25H400C386.63 447.25 379.11 440.52 379.11 428.75C379.11 416.98 386.68 410.25 400 410.25ZM387.52 555.73C387.52 558.61 388.664 561.373 390.701 563.409C392.737 565.446 395.5 566.59 398.38 566.59C401.26 566.59 404.022 565.446 406.059 563.409C408.096 561.373 409.24 558.61 409.24 555.73V541.43H425.95V555.73C425.95 558.61 427.094 561.373 429.131 563.409C431.167 565.446 433.93 566.59 436.81 566.59C439.69 566.59 442.452 565.446 444.489 563.409C446.526 561.373 447.67 558.61 447.67 555.73V541.43H457.67C460.978 541.338 464.124 539.978 466.456 537.63C468.789 535.283 470.129 532.128 470.2 528.82V395.11C470.13 391.807 468.793 388.656 466.467 386.31C464.141 383.963 461.003 382.599 457.7 382.5H447.7V370.73C447.7 367.85 446.556 365.087 444.519 363.051C442.482 361.014 439.72 359.87 436.84 359.87C433.96 359.87 431.197 361.014 429.161 363.051C427.124 365.087 425.98 367.85 425.98 370.73V382.5H409.24V370.73C409.24 367.85 408.096 365.087 406.059 363.051C404.022 361.014 401.26 359.87 398.38 359.87C395.5 359.87 392.737 361.014 390.701 363.051C388.664 365.087 387.52 367.85 387.52 370.73V383.34C364.96 387.54 350.76 403.52 350.76 427.07C350.76 442.21 358.28 453.14 367.47 459.07C355.77 466.64 349.09 479.25 349.09 494.39C349.09 519.62 364.09 536.39 388.36 539.8V555.8L387.52 555.73Z" fill="white"/>
</g>
<defs>
<clipPath id="clip0_2_2934">
<rect width="1024" height="1024" fill="white"/>
</clipPath>
</defs>
</svg>

<svg xmlns="http://www.w3.org/2000/svg" width="1024" height="1024" fill="none">
   <g clip-path="url(#a)">
      <path fill="#F9DE81" d="M512 1024c282.77 0 512-229.23 512-512S794.77 0 512 0 0 229.23 0 512s229.23 512 512 512Z"/>
      <path fill="#fff" d="M512 745.77c-128.66 0-232.26-104.27-232.26-233.77S383.34 278.23 512 278.23 744.26 382.5 744.26 512 640.66 745.77 512 745.77Zm0-511.27C359.95 234.5 236.3 359 236.3 512S359.95 789.5 512 789.5c152.05 0 275.7-124.5 275.7-277.5S664.05 234.5 512 234.5Zm128.66 362.43c-10-6.73-23.39-3.36-30.08 6.73 0 .84-30.91 48.77-98.58 48.77-66.84 0-96.91-46.25-98.58-48.77a20.577 20.577 0 0 0-13.163-9.696 20.568 20.568 0 0 0-16.077 2.966c-10 5.89-13.37 19.34-7.52 29.43 1.67 2.52 44.28 69 135.34 69s133.67-65.59 135.34-69c5.85-10.09 3.35-23.54-6.68-29.43Zm-15-82.41h-40.98v-40.36h40.94c13.37 0 21.72 7.57 21.72 20.18 0 11.77-8.34 20.18-21.72 20.18h.04Zm19.22-85.77c0 11.77-7.52 18.5-20.89 18.5h-39.31v-37H624c13.32 0 20.84 6.75 20.84 18.5h.04Zm12.53 31.11c9.19-5.89 16.71-16.82 16.71-32 0-23.55-14.2-39.52-36.76-43.73v-12.56a10.858 10.858 0 0 0-10.86-10.86 10.858 10.858 0 0 0-10.86 10.86v11.77h-16.75v-11.77a10.858 10.858 0 0 0-10.86-10.86 10.858 10.858 0 0 0-10.86 10.86v11.77h-10A12.891 12.891 0 0 0 554.61 396v132.82a12.888 12.888 0 0 0 12.53 12.61h10v14.3A10.858 10.858 0 0 0 588 566.59a10.86 10.86 0 0 0 10.86-10.86v-14.3h16.74v14.3a10.858 10.858 0 0 0 10.86 10.86 10.86 10.86 0 0 0 10.86-10.86v-15.14c24.23-3.36 39.27-20.18 39.27-45.41-.84-15.18-7.52-28.59-19.22-35.32h.04Zm-280.75 34.48c0-12.61 8.35-20.18 21.72-20.18h40.94v40.36h-40.94c-13.38 0-21.72-8.41-21.72-20.18ZM400 410.25h39.27v37H400c-13.37 0-20.89-6.73-20.89-18.5s7.57-18.5 20.89-18.5Zm-12.48 145.48a10.858 10.858 0 0 0 10.86 10.86 10.86 10.86 0 0 0 10.86-10.86v-14.3h16.71v14.3a10.858 10.858 0 0 0 10.86 10.86 10.86 10.86 0 0 0 10.86-10.86v-14.3h10a12.889 12.889 0 0 0 12.53-12.61V395.11a12.889 12.889 0 0 0-12.5-12.61h-10v-11.77a10.858 10.858 0 0 0-10.86-10.86 10.858 10.858 0 0 0-10.86 10.86v11.77h-16.74v-11.77a10.858 10.858 0 0 0-10.86-10.86 10.858 10.858 0 0 0-10.86 10.86v12.61c-22.56 4.2-36.76 20.18-36.76 43.73 0 15.14 7.52 26.07 16.71 32-11.7 7.57-18.38 20.18-18.38 35.32 0 25.23 15 42 39.27 45.41v16l-.84-.07Z"/>
   </g>
   <defs>
      <clipPath id="a">
         <path fill="#fff" d="M0 0h1024v1024H0z"/>
      </clipPath>
   </defs>
</svg>
